!!!COM: Music21
!!!OTL: Alalá
!!!OMV: pezas_alalas_alala-32_alala-partitura.musicxml
**kern
*I"Voz
*I'Ch
*clefG2
*k[f#c#g#]
*M6/8
*MM60
=1
!LO:TX:a:t=[quarter-dot]=40
2r
8r
8a
=
4b
8e
8eL
8g#
8aJ
=
4b
[8b
4b]
8cc#
=
8ddL
8cc#
8bJ
8aL
8g#
8bJ
=
4a
[8a
4a]
8a
!!linebreak:original
=
4b
8e
8eL
8g#
8aJ
=
4b
8g#
4a
8f#
=
4g#
8e
[4.d
=
2d]
4r
=
8dL
8gn
8gJ
8gL
8f#
8aJ
=
4g#
8f#
[4.e
!!linebreak:original
=
2.e]
==
*-
